X:18
T:Asia
S:John Moore's Book 3
Z:Transcribed by Steve Mansfield 05/2021
%%VWML: Moore1-4495-p16-0
F:https://www.vwml.org/record/Moore3/4495/p16
M:C|
L:1/4
K:G
V:1
d2d2 | e2e2 | d2(dc) | B4 | 
A2A2 | A2(AB) | A2 A2 | A4 ||
B2(cB) | (BA)(AG) | G2c2 | B2 {cB}A2 | 
!p!B2F2 | (G>A) B2 | z4 | z4 | 
!f! (dB)(GB) | c2(BA) | G2F2 | G4 |]
V:2
d2f2 | g2ga | (gd) d2 | d4 | 
d2e2 | f2(fe) | d2^c2 | d4 ||
d2g2 | f2g2 | e2e2 | d4 | 
z4 | z4 | !p!g2(ab) | (a>a)g2 | 
g2d2 | (eg)(ge) | d2c2 | B4 |] 
V:3
"Air"
B2A2 | (GB)c2 | (cB)(GF) | G4 | 
w:Lift your eyes* of faith* and* see
d2^c2 | (dA)(dg) | g2e2 | d4 ||
w:saints and angels*** join in one
d2(ed) | dccB | e2(cA) | 
w:what* a countless*** com--pa
(G2{AG}F2) | !p!G2(Ac) | )B>AG2 | B2(ce) | d>c !f!B2 | 
w:ny* stand*be-fore you* stand*be-fore*you* 
gdBG | (ce)(dc) | B2A2 | G4 |] 
w:stand**be-fore*you* dazz-ling throne 
V:4 clef=bass middle=d
g2d2 | (ed)(cA) | d2d2 | g4 | 
f2e2 | d2(fg) | a2A2 | d4 ||
g2g2 | d2g2 | c2c2 | d4 | 
g2d2 | g2G2 | g2g2 | g2g2 | 
g2g2 | (ec)Bc | d2d2 | G4 |] 

